src/img/icon-gh.svg

<svg width="20" height="20" viewBox="0 0 20 20" fill="none" xmlns="http://www.w3.org/2000/svg">
<path fill-rule="evenodd" clip-rule="evenodd" d="M17.1959 1.57904C16.7674 1.6694 16.021 1.93383 14.9182 2.68169C14.7354 2.80562 14.5084 2.84333 14.296 2.78504C12.4275 2.27225 10.4552 2.27225 8.58667 2.78504C8.37425 2.84333 8.14724 2.80562 7.96449 2.68169C6.86211 1.93411 6.11395 1.6696 5.68356 1.57915C5.64206 1.57043 5.60345 1.56331 5.5677 1.55752C5.36236 2.27908 5.38223 3.05016 5.63106 3.76595C5.72464 4.03513 5.66255 4.33453 5.4699 4.54315C4.78207 5.28796 4.40839 6.26705 4.42393 7.27742L4.42411 7.28933C4.42411 9.46319 5.0077 10.5897 5.7516 11.2328C6.53318 11.9085 7.63777 12.1858 8.9677 12.3363C9.35185 12.3798 9.64231 12.7079 9.64231 13.0984V15.1434C9.64231 15.3307 9.57444 15.5116 9.45151 15.6518C8.96359 16.2084 8.28755 16.3412 7.67584 16.3119C7.07143 16.2829 6.41308 16.0937 5.78316 15.865C5.18006 15.6459 4.54626 15.3687 3.94535 15.1059C3.91115 15.091 3.87704 15.076 3.84306 15.0612C3.19962 14.7799 2.59903 14.5204 2.05937 14.3362C1.65356 14.1977 1.5382 14.4193 1.52584 14.4757C1.51791 14.512 1.47221 15.004 2.58588 15.4539L2.60304 15.461C4.23904 16.1693 5.0908 16.8974 5.72876 17.4427C5.82719 17.5269 5.92053 17.6066 6.01088 17.6813C6.33503 17.9493 6.59302 18.1289 6.91555 18.2534C7.23986 18.3785 7.67982 18.4665 8.37566 18.4665H13.7032C13.7034 18.4538 13.7037 18.4409 13.704 18.428C13.7079 18.2416 13.7124 18.0338 13.7167 17.8125C13.7301 17.1333 13.7434 16.3041 13.7434 15.4962C13.7434 15.4771 13.7441 15.458 13.7455 15.4389C13.7678 15.138 13.7252 14.8357 13.6203 14.5523C13.5154 14.2689 13.3505 14.0108 13.1364 13.7956C12.9282 13.5864 12.8581 13.2748 12.9563 12.9953C13.0545 12.7159 13.3035 12.5186 13.5956 12.4889C14.9101 12.3549 16.1164 12.049 16.992 11.32C17.8289 10.6233 18.4811 9.43856 18.4811 7.26689V7.25498C18.4967 6.2446 18.1231 5.26552 17.4352 4.5207C17.2445 4.31415 17.1816 4.01841 17.2715 3.75095C17.5114 3.03769 17.5235 2.27181 17.3126 1.55721C17.2767 1.56303 17.2378 1.57021 17.1959 1.57904ZM17.8407 0.795627L18.0721 0.0652701C18.2774 0.131669 18.4451 0.283122 18.5334 0.481835C18.9997 1.53228 19.1027 2.704 18.8337 3.81317C19.6027 4.79489 20.0174 6.01492 19.9994 7.27278C19.9982 9.78107 19.2248 11.4487 17.9577 12.5036C17.0765 13.2372 16.0162 13.6222 14.9698 13.834C14.9956 13.8937 15.0198 13.954 15.0424 14.0151C15.2207 14.4968 15.2954 15.0107 15.2617 15.5233C15.2614 16.3377 15.248 17.1679 15.2348 17.8429C15.23 18.0845 15.2253 18.3037 15.2212 18.4947C15.2136 18.852 15.2081 19.1108 15.2081 19.2334C15.2081 19.6569 14.8682 20.0002 14.4489 20.0002H8.37566C7.5539 20.0002 6.91891 19.8965 6.37375 19.6861C5.82681 19.4751 5.42081 19.1754 5.04926 18.8682C4.94819 18.7847 4.84794 18.6992 4.74562 18.6119C4.12479 18.0823 3.42804 17.488 2.01302 16.8743C0.601258 16.3009 -0.200503 15.2578 0.043379 14.1444C0.283366 13.0488 1.43271 12.5035 2.54528 12.8831C3.15453 13.091 3.81285 13.3768 4.44606 13.6536C4.4752 13.6663 4.5043 13.6791 4.53335 13.6918C5.14789 13.9605 5.74071 14.2197 6.29683 14.4217C6.88675 14.6359 7.37369 14.7619 7.74776 14.7799C7.91728 14.788 8.03742 14.7734 8.12399 14.7481V13.7707C6.94343 13.5861 5.72921 13.2322 4.76434 12.3981C3.5774 11.3719 2.90676 9.74892 2.9057 7.29516C2.88777 6.03903 3.30136 4.82063 4.06832 3.83961C3.78716 2.72729 3.87975 1.54842 4.33905 0.488188C4.42667 0.285937 4.59632 0.13164 4.80461 0.0647761L5.03453 0.795627C4.80461 0.0647761 4.80533 0.0645439 4.80606 0.064311L4.80754 0.0638412L4.81058 0.0628872L4.81695 0.0609257L4.83092 0.0568138C4.84078 0.0539975 4.85171 0.051046 4.86373 0.0480316C4.88779 0.0420006 4.91613 0.0357327 4.94881 0.0297982C5.01424 0.0179145 5.09654 0.00746088 5.19602 0.0028093C5.39547 -0.0065163 5.66015 0.00764914 5.99283 0.0775651C6.60405 0.20602 7.43894 0.521251 8.52304 1.2182C10.4403 0.749547 12.4423 0.749545 14.3596 1.21819C15.4431 0.521496 16.2761 0.206212 16.8856 0.077672C17.2174 0.00769692 17.4814 -0.00654184 17.6805 0.00281807C17.7799 0.00748673 17.8621 0.0179838 17.9275 0.0299479C17.9602 0.0359224 17.9886 0.0422387 18.0127 0.0483274C18.0248 0.0513705 18.0358 0.054353 18.0457 0.0572023L18.0597 0.0613654L18.0661 0.0633537L18.0692 0.0643213L18.0707 0.0647981C18.0714 0.0650343 18.0721 0.0652701 17.8407 0.795627Z" fill="#231E1B"/>
</svg>

<svg width="20" height="20" viewBox="0 0 20 20" fill="none" xmlns="http://www.w3.org/2000/svg"><path fill-rule="evenodd" clip-rule="evenodd" d="M17.196 1.579c-.429.09-1.175.355-2.278 1.103a.753.753 0 01-.622.103 10.787 10.787 0 00-5.71 0 .753.753 0 01-.622-.103c-1.102-.748-1.85-1.012-2.28-1.103a2.534 2.534 0 00-.116-.021 3.668 3.668 0 00.063 2.208.773.773 0 01-.161.777 3.94 3.94 0 00-1.046 2.734v.012c0 2.174.584 3.3 1.328 3.944.781.675 1.886.953 3.216 1.103a.764.764 0 01.674.762v2.045a.771.771 0 01-.19.509c-.488.556-1.164.69-1.776.66-.605-.03-1.263-.218-1.893-.447a31.838 31.838 0 01-1.838-.76l-.102-.044c-.643-.281-1.244-.54-1.784-.725-.405-.138-.52.083-.533.14-.008.036-.054.528 1.06.978l.017.007c1.636.708 2.488 1.436 3.126 1.982.098.084.192.164.282.238.324.268.582.448.905.572.324.125.764.213 1.46.213h5.327l.001-.038.013-.616a119.98 119.98 0 00.028-2.373 2.105 2.105 0 00-.609-1.643.772.772 0 01-.18-.8.76.76 0 01.64-.507c1.314-.134 2.52-.44 3.396-1.169.837-.697 1.49-1.881 1.49-4.053v-.012a3.94 3.94 0 00-1.047-2.734.773.773 0 01-.163-.77c.24-.713.252-1.48.04-2.194a2.528 2.528 0 00-.116.022zm.645-.783l.231-.73a.762.762 0 01.461.416c.467 1.05.57 2.222.3 3.331A5.483 5.483 0 0120 7.273c0 2.508-.774 4.176-2.041 5.23-.881.734-1.942 1.12-2.988 1.331a3.635 3.635 0 01.292 1.69 123.326 123.326 0 01-.04 2.97c-.008.358-.014.617-.014.74 0 .423-.34.766-.76.766H8.377c-.822 0-1.457-.104-2.002-.314-.547-.21-.953-.51-1.325-.818a25.09 25.09 0 01-.303-.256c-.621-.53-1.318-1.124-2.733-1.738-1.412-.573-2.214-1.616-1.97-2.73.24-1.095 1.39-1.64 2.502-1.26.61.207 1.268.493 1.901.77.03.012.058.025.087.038.615.268 1.208.528 1.764.73.59.214 1.077.34 1.45.358.17.008.29-.007.377-.032v-.977c-1.18-.185-2.395-.539-3.36-1.373-1.187-1.026-1.857-2.65-1.858-5.103A5.484 5.484 0 014.068 3.84 5.216 5.216 0 014.34.488a.762.762 0 01.466-.423l.23.73-.229-.73.002-.001.003-.001.006-.002.014-.004A1.045 1.045 0 014.949.03c.065-.012.148-.023.247-.027.2-.01.464.005.797.075.611.128 1.446.443 2.53 1.14a12.29 12.29 0 015.837 0C15.443.521 16.276.206 16.886.078c.331-.07.595-.085.794-.075a1.86 1.86 0 01.366.054l.014.004.006.002.003.001h.002c0 .001.001.001-.23.732z" fill="#231E1B"/></svg>
